P3
# EpochGui Demo image
16 10
255
12 18 35 16 18 37 80 170 255 80 170 255 28 18 43 32 18 45 36 18 47 40 18 49 44 18 51 48 18 53 52 18 55 56 18 57 60 18 59 64 18 61 68 18 63 72 18 65
12 21 35 16 21 37 80 170 255 80 170 255 80 170 255 80 170 255 80 170 255 80 170 255 80 170 255 80 170 255 80 170 255 56 21 57 60 21 59 64 21 61 68 21 63 72 21 65
12 24 35 16 24 37 80 170 255 80 170 255 28 24 43 32 24 45 36 24 47 40 24 49 44 24 51 48 24 53 52 24 55 242 189 98 242 189 98 242 189 98 68 24 63 72 24 65
12 27 35 16 27 37 80 170 255 80 170 255 28 27 43 32 27 45 36 27 47 40 27 49 44 27 51 48 27 53 52 27 55 242 189 98 242 189 98 242 189 98 68 27 63 72 27 65
12 30 35 16 30 37 80 170 255 80 170 255 80 170 255 80 170 255 80 170 255 80 170 255 80 170 255 80 170 255 80 170 255 242 189 98 242 189 98 242 189 98 68 30 63 72 30 65
12 33 35 16 33 37 80 170 255 80 170 255 28 33 43 32 33 45 36 33 47 40 33 49 44 33 51 48 33 53 52 33 55 242 189 98 242 189 98 242 189 98 68 33 63 72 33 65
12 36 35 16 36 37 80 170 255 80 170 255 28 36 43 32 36 45 36 36 47 40 36 49 44 36 51 48 36 53 52 36 55 242 189 98 242 189 98 242 189 98 68 36 63 72 36 65
12 39 35 16 39 37 80 170 255 80 170 255 28 39 43 32 39 45 36 39 47 40 39 49 44 39 51 48 39 53 52 39 55 242 189 98 242 189 98 242 189 98 68 39 63 72 39 65
12 42 35 16 42 37 80 170 255 80 170 255 80 170 255 80 170 255 80 170 255 80 170 255 80 170 255 80 170 255 80 170 255 56 42 57 60 42 59 64 42 61 68 42 63 72 42 65
12 45 35 16 45 37 80 170 255 80 170 255 28 45 43 32 45 45 36 45 47 40 45 49 44 45 51 48 45 53 52 45 55 56 45 57 60 45 59 64 45 61 68 45 63 72 45 65
